X:1
T:Title
%%score { 1 | 2 }
L:1/8
M:3/4
K:F
V:1 treble nm="Grand Piano"
V:2 bass 
V:1
 z2 z[Q:1/4=92] C FA | c3 A [EG]E | F3 F GA | B3 B FG |[M:3/8] A3 | [Ac][Ac][Ac] | %6
[M:3/4] [Ac]3 A GF | D3 [DF] [DF][DG] | AC [FA]2 [EG]2 |[M:3/8] F3 | FE[EG] | %11
[M:3/4] [EB]3 [EB] [EB][EB] | A3 F E[EG] | [GB]3 [Bd] [Ac][_A=B] |[M:3/8] [CAc]3 | %15
 [EAc][F_A=B][CG_B] |[M:3/4] [CFA]3 [A,CF] [CA][Cc] | [B,D]3 [DF] [DF][DG] | AC [FA]2 [EG]2 | %19
[M:3/8] [CF]3 |] %20
V:2
 z2 z [F,A,] [F,A,C][F,CF] | [F,A,F]3 [F,CF] [C,C][C,B,C] | [F,A,C]3 [F,A,C] [F,B,C][F,CF] | %3
 [F,DF]3 [F,DF] [F,A,][F,B,F] |[M:3/8] [F,CF]3 | [F,F][F,F][F,F] | %6
[M:3/4] [F,F]3 [F,CF] [F,B,C][F,A,C] | [B,,F,B,]3 [B,,B,] [B,,B,][B,,B,] | %8
 [C,F,C][C,A,] [C,C]2 [C,B,]2 |[M:3/8] [F,A,C]3 | [F,A,C][C,G,C][C,C] | %11
[M:3/4] [C,C]3 [C,C] [C,C][C,C] | [F,CF]3 [F,A,C] [C,G,C][C,C] | [C,C]3 [C,C] [C,C][C,C] | %14
[M:3/8] F,3 | C,D,E, |[M:3/4] F,3 F, F,[A,,F,] | [B,,F,]3 [B,,B,] [B,,B,][B,,B,] | %18
 [C,F,C][C,A,] [C,C]2 [C,B,]2 |[M:3/8] [F,A,]3 |] %20

